brandFactory_export/3.Masa/Servidor cloud_3Masa.svg

<?xml version="1.0" encoding="UTF-8"?>
<svg width="24px" height="24px" viewBox="0 0 24 24" version="1.1" xmlns="http://www.w3.org/2000/svg" xmlns:xlink="http://www.w3.org/1999/xlink">
    <title>3.Masa/Servidor cloud_3Masa</title>
    <g id="Symbols" stroke="none" stroke-width="1" fill="none" fill-rule="evenodd">
        <g id="3.Masa/Servidor-cloud_3Masa" fill="#5CB615" fill-rule="nonzero">
            <path d="M22.1277311,20.8403361 C22.1176471,21.697479 21.6403361,22.1411765 20.7226891,22.1411765 C19.805042,22.1411765 19.3378151,21.707563 19.3378151,20.8605042 L19.3378151,20.6823529 C19.3478992,20.1008403 19.5966387,19.3983193 20.6857143,19.3815126 L20.7831933,19.3815126 C21.8722689,19.4016807 22.1210084,20.0907563 22.1310924,20.6722689 C22.1277311,20.6722689 22.1277311,20.8403361 22.1277311,20.8403361 Z M4.29579832,20.6722689 L4.29579832,20.8403361 C4.27563025,21.697479 3.80504202,22.1411765 2.8907563,22.1411765 C1.97310924,22.1411765 1.50588235,21.707563 1.49579832,20.8605042 L1.49579832,20.6823529 C1.51596639,20.0907563 1.76470588,19.3714286 2.90084034,19.3714286 C4.02689076,19.3714286 4.28571429,20.0806723 4.29579832,20.6722689 L4.29579832,20.6722689 Z M21.4823529,17.9697479 L21.4823529,15.7512605 C21.4789916,15.3411765 21.1428571,15.0117647 20.7327731,15.0117647 L12.4773109,15.0117647 C12.4907563,14.9613445 12.507563,14.9109244 12.507563,14.8537815 L12.507563,13.7378151 L16.3865546,13.7176471 C18.7865546,13.7176471 21.6,12.3865546 21.6,8.61512605 C21.6,5.24033613 19.3579832,3.81848739 17.092437,3.57310924 C15.8184874,0.188235294 11.912605,0 11.112605,0 C8.26218487,0 4.95462185,1.4789916 4.74285714,5.61344538 C3.68739496,6.0605042 2.38991597,7.09243697 2.38991597,9.49243697 C2.38991597,12.6521008 4.72268908,13.7647059 6.72605042,13.7647059 L11.0117647,13.7445378 L11.0117647,14.8504202 C11.0117647,14.9109244 11.0319328,14.9579832 11.0420168,15.0084034 L2.88067227,15.0084034 C2.68235294,15.0084034 2.49411765,15.0857143 2.35294118,15.2268908 C2.21512605,15.3680672 2.13445378,15.5596639 2.13109244,15.7613445 L2.14117647,17.9697479 C0.618487395,18.2857143 0.0302521008,19.5495798 0,20.6453782 L0,20.8806723 C0.0201680672,22.1445378 0.776470588,23.6235294 2.8907563,23.6235294 C4.99495798,23.6235294 5.77142857,22.1344538 5.79159664,20.8638655 L5.79159664,20.6453782 C5.77142857,19.5394958 5.17310924,18.2756303 3.63697479,17.9596639 L3.63697479,16.4907563 L19.9865546,16.4907563 L19.9865546,17.9697479 C18.4605042,18.2756303 17.8621849,19.5495798 17.8420168,20.6453782 C17.8420168,20.712605 17.8319328,20.8033613 17.8420168,20.8806723 C17.8521008,22.1445378 18.6084034,23.6235294 20.7226891,23.6235294 C22.8369748,23.6235294 23.6033613,22.1344538 23.6235294,20.8638655 L23.6235294,20.6453782 C23.6033613,19.5394958 23.0151261,18.2756303 21.4823529,17.9697479 L21.4823529,17.9697479 Z" id="Servidor-cloud_3Masa"></path>
        </g>
    </g>
</svg>

<svg width="24" height="24" viewBox="0 0 24 24" xmlns="http://www.w3.org/2000/svg"><path d="M22.128 20.84c-.01.857-.488 1.301-1.405 1.301-.918 0-1.385-.433-1.385-1.28v-.179c.01-.581.259-1.284 1.348-1.3h.097c1.09.02 1.338.709 1.348 1.29-.003 0-.003.168-.003.168zm-17.832-.168v.168c-.02.857-.491 1.301-1.405 1.301-.918 0-1.385-.433-1.395-1.28v-.179c.02-.591.269-1.31 1.405-1.31 1.126 0 1.385.709 1.395 1.3zm17.186-2.702V15.75a.748.748 0 00-.75-.74h-8.255c.014-.05.03-.1.03-.157v-1.116l3.88-.02c2.4 0 5.213-1.331 5.213-5.103 0-3.375-2.242-4.797-4.508-5.042C15.818.188 11.912 0 11.112 0c-2.85 0-6.157 1.479-6.37 5.613-1.055.448-2.352 1.48-2.352 3.88 0 3.16 2.333 4.272 4.336 4.272l4.286-.02v1.105c0 .06.02.108.03.158H2.881a.743.743 0 00-.528.219.785.785 0 00-.222.534l.01 2.209C.618 18.286.031 19.55 0 20.645v.236c.02 1.264.776 2.743 2.89 2.743 2.105 0 2.881-1.49 2.902-2.76v-.219c-.02-1.106-.619-2.37-2.155-2.685v-1.47h16.35v1.48c-1.526.306-2.125 1.58-2.145 2.675 0 .068-.01.158 0 .236.01 1.264.766 2.743 2.88 2.743 2.115 0 2.881-1.49 2.902-2.76v-.219c-.02-1.106-.609-2.37-2.142-2.675z" fill="#5CB615" fill-rule="nonzero"/></svg>
